flaticon/gastronomy/knife-1.svg

<svg xmlns="http://www.w3.org/2000/svg" width="32" height="32" viewBox="0 0 24 24">
    <path d="M12.398438 14.398438C12.398438 14.621094 12.222656 14.800781 12 14.800781 11.777344 14.800781 11.601562 14.621094 11.601562 14.398438 11.601562 14.179688 11.777344 14 12 14 12.222656 14 12.398438 14.179688 12.398438 14.398438zM12.398438 16C12.398438 16.222656 12.222656 16.398438 12 16.398438 11.777344 16.398438 11.601562 16.222656 11.601562 16 11.601562 15.777344 11.777344 15.601562 12 15.601562 12.222656 15.601562 12.398438 15.777344 12.398438 16zM12.398438 16"/>
    <path d="M 12 0 C 10.457031 0 9.199219 1.257812 9.199219 2.800781 L 9.199219 8.800781 C 9.199219 10.207031 10.246094 11.371094 11.601562 11.566406 L 11.601562 12.058594 C 10.910156 12.234375 10.398438 12.855469 10.398438 13.601562 L 10.398438 22.398438 C 10.398438 23.28125 11.117188 24 12 24 C 12.882812 24 13.601562 23.28125 13.601562 22.398438 L 13.601562 13.601562 C 13.601562 12.855469 13.089844 12.234375 12.398438 12.058594 L 12.398438 11.566406 C 13.753906 11.371094 14.800781 10.207031 14.800781 8.800781 L 14.800781 2.800781 C 14.800781 1.257812 13.542969 0 12 0 Z M 12.800781 13.601562 L 12.800781 22.398438 C 12.800781 22.839844 12.441406 23.199219 12 23.199219 C 11.558594 23.199219 11.199219 22.839844 11.199219 22.398438 L 11.199219 13.601562 C 11.199219 13.160156 11.558594 12.800781 12 12.800781 C 12.441406 12.800781 12.800781 13.160156 12.800781 13.601562 Z M 14 8.800781 C 14 9.902344 13.101562 10.800781 12 10.800781 C 10.898438 10.800781 10 9.902344 10 8.800781 L 10 2.800781 C 10 1.695312 10.898438 0.800781 12 0.800781 C 13.101562 0.800781 14 1.695312 14 2.800781 Z M 14 8.800781"/>
</svg>

<svg xmlns="http://www.w3.org/2000/svg" width="32" height="32" viewBox="0 0 24 24">
    <path d="M12.398 14.398a.398.398 0 1 1-.796 0 .398.398 0 1 1 .796 0zm0 0M12.398 16a.395.395 0 0 1-.398.398.395.395 0 0 1-.398-.398c0-.223.175-.398.398-.398.223 0 .398.175.398.398zm0 0"/>
    <path d="M12 0a2.806 2.806 0 0 0-2.8 2.8v6a2.802 2.802 0 0 0 2.402 2.766v.493a1.592 1.592 0 0 0-1.204 1.543v8.796c0 .883.72 1.602 1.602 1.602.883 0 1.602-.719 1.602-1.602v-8.796c0-.747-.512-1.368-1.204-1.543v-.493a2.802 2.802 0 0 0 2.403-2.765v-6C14.8 1.258 13.543 0 12 0zm.8 13.602v8.796a.802.802 0 0 1-1.6 0v-8.796a.802.802 0 0 1 1.6 0zM14 8.8c0 1.101-.898 2-2 2-1.102 0-2-.899-2-2v-6c0-1.106.898-2 2-2 1.102 0 2 .894 2 2zm0 0"/>
</svg>
